public/counter.svg

<svg width="73" height="99" viewBox="0 0 73 99" fill="none" xmlns="http://www.w3.org/2000/svg">
<g clip-path="url(#clip0_9_54623)">
<path fill-rule="evenodd" clip-rule="evenodd" d="M33.0619 20.8231C17.9431 29.8456 5.86348 49.5576 4.36581 67.6936C4.14838 70.2779 3.70176 75.6556 5.80227 77.7053C7.39097 78.8072 9.04019 79.8176 10.742 80.7316C10.3575 79.8461 10.1327 78.8985 10.0779 77.9334C8.85337 62.9376 17.1793 45.7742 25.9644 35.4117C33.3955 26.6435 44.8816 18.2744 55.2547 20.0263L53.1063 18.7782C47.6635 15.6767 40.9098 16.365 33.0611 20.8231H33.0619ZM13.001 83.1282C12.9102 83.1275 12.8208 83.105 12.7404 83.0624C12.4837 82.9096 12.063 82.6664 11.5465 82.3749C9.3191 81.201 7.16511 79.8905 5.09662 78.4506C2.6311 76.0548 3.09501 70.5631 3.33834 67.6065C4.87919 49.1593 17.1456 29.109 32.5384 19.9337V19.9258C40.7293 15.2791 47.8307 14.5908 53.6032 17.8847L60.4008 21.8447C60.4598 21.8772 60.5115 21.9214 60.5531 21.9747C60.5947 22.0279 60.6251 22.0891 60.6426 22.1545C60.66 22.22 60.6642 22.2883 60.6548 22.3554C60.6453 22.4225 60.6224 22.487 60.5876 22.5449C60.5213 22.6628 60.4116 22.7496 60.2823 22.7865C60.153 22.8234 60.0145 22.8075 59.8968 22.7421C48.9374 16.6437 35.1859 26.1184 26.7344 36.0818C18.0788 46.278 9.8879 63.1475 11.0951 77.8502C11.2694 79.9783 11.9335 81.3144 13.2695 82.1769C13.3626 82.2368 13.434 82.3256 13.473 82.4298C13.512 82.5341 13.5164 82.6483 13.4856 82.7554C13.4549 82.8624 13.3905 82.9565 13.3023 83.0236C13.2141 83.0906 13.1067 83.1271 12.9963 83.1274L13.001 83.1282Z" fill="#1B69FF"/>
<path fill-rule="evenodd" clip-rule="evenodd" d="M39.5855 24.3308C47.6202 19.658 54.892 19.22 60.1511 22.2898C65.4205 25.3596 68.6756 31.9379 68.6756 41.2978C68.6756 42.2133 68.6324 43.1986 68.5712 44.1442C68.3008 46.99 67.3731 49.7321 65.8624 52.1506C64.475 54.5688 62.5175 56.6042 60.1637 58.0763L51.0481 63.3827C49.825 65.8686 48.3219 68.2038 46.5684 70.342C44.6129 72.7939 42.2439 74.8784 39.5706 76.4998C37.4763 77.8275 35.0476 78.5192 32.5744 78.4925C30.9305 78.4373 29.3545 77.8176 28.1072 76.7358L18.9924 82.0422C16.7946 83.3165 14.7867 83.509 13.2757 82.7693C11.7647 82.0296 10.7709 80.3474 10.5849 77.8985C10.5283 77.0233 10.4805 76.0808 10.4805 75.166C10.4977 65.807 13.7529 55.4358 19.0223 46.2383C24.2806 37.0281 31.5642 29.0044 39.5855 24.3308Z" fill="#F1F4FB"/>
<path fill-rule="evenodd" clip-rule="evenodd" d="M52.5575 20.8326C48.6728 20.8326 44.3494 22.1592 39.8414 24.7784C32.1489 29.2548 24.9094 36.9673 19.4493 46.4926C14.0065 56.0141 10.9986 66.1968 10.9986 75.163C10.9986 76.0168 11.0291 76.9458 11.0982 77.8558C11.2591 80.0362 12.1053 81.6179 13.4899 82.3013C14.9028 82.9888 16.7585 82.7393 18.7295 81.5885L27.8451 76.2822C27.9379 76.2283 28.0449 76.2048 28.1515 76.215C28.2581 76.2252 28.359 76.2686 28.44 76.3392C29.6016 77.3464 31.0695 77.9226 32.6003 77.9722C34.9729 77.9847 37.3002 77.3164 39.3108 76.0453C41.9352 74.4551 44.2613 72.4106 46.1822 70.0055C47.9047 67.8963 49.3826 65.5955 50.5873 63.1477C50.6311 63.0562 50.7008 62.9798 50.7874 62.9282L59.9023 57.6218C62.183 56.1909 64.0816 54.2181 65.4322 51.8759C66.9036 49.5321 67.8022 46.8692 68.054 44.1064C68.1277 43.1425 68.1536 42.1707 68.1536 41.29C68.1536 32.4299 65.2329 25.8389 59.9023 22.7247C57.6645 21.4451 55.1295 20.789 52.5575 20.8239V20.8326ZM15.22 83.7111C14.4678 83.7202 13.7236 83.5537 13.0457 83.2248C11.3188 82.375 10.2678 80.4916 10.077 77.9295C10.0072 76.9926 9.97656 76.0374 9.97656 75.1615C9.97656 66.021 13.0323 55.6545 18.5756 45.9755C24.1189 36.2965 31.4935 28.4524 39.3414 23.885C47.2631 19.2692 54.7507 18.5422 60.4062 21.8448C66.0617 25.1475 69.1788 32.0616 69.1788 41.2987C69.1788 42.2056 69.1481 43.1995 69.0743 44.1808C68.801 47.1056 67.8558 49.9257 66.3137 52.4176C64.8683 54.909 62.84 57.0053 60.4062 58.5232L51.4381 63.7504C50.2116 66.2231 48.7086 68.5461 46.9585 70.674C44.9626 73.169 42.5487 75.2917 39.8265 76.9459C37.6394 78.311 35.1146 79.0248 32.543 79.0051C30.9119 78.9389 29.3417 78.3618 28.0507 77.3538L19.2389 82.4827C18.0286 83.2399 16.6425 83.6634 15.2192 83.7111H15.22Z" fill="#1B69FF"/>
<path fill-rule="evenodd" clip-rule="evenodd" d="M56.5246 28.6407C52.1885 26.1135 46.1986 26.4731 39.587 30.323C32.9754 34.1729 26.9871 40.7774 22.6549 48.3536C18.3228 55.9299 15.6406 64.4621 15.6406 72.1707C15.6406 72.9674 15.6532 73.6818 15.7144 74.4437C15.7058 74.8236 15.7968 75.199 15.9782 75.5319C16.1596 75.8649 16.425 76.1436 16.7474 76.3398C17.1177 76.48 17.5165 76.5261 17.9087 76.4742C18.3009 76.4222 18.6744 76.2738 18.9963 76.0419L29.4094 69.9808V69.9942C30.243 69.5087 31.0633 69.5088 31.5538 70.0996C31.9791 70.6178 32.5084 71.0391 33.1068 71.3357C33.7053 71.6324 34.3593 71.7977 35.0257 71.8206C36.6372 71.8308 38.2176 71.373 39.5784 70.5019C41.3161 69.4571 42.8573 68.1109 44.131 66.5253C45.5015 64.8505 46.6373 62.9936 47.5063 61.0066C47.9206 59.8293 48.7098 58.8236 49.7505 58.1467L60.1769 52.0856C61.097 51.5107 61.8631 50.7165 62.4077 49.7729C62.9963 48.8329 63.3562 47.7658 63.458 46.6587C63.5184 45.8311 63.5318 45.0906 63.5318 44.2939C63.5349 36.5853 60.8567 31.1672 56.5246 28.6407Z" fill="white"/>
<path fill-rule="evenodd" clip-rule="evenodd" d="M50.2757 27.5376C47.0935 27.5376 43.5345 28.6235 39.8492 30.7698C33.5296 34.4487 27.5782 40.7862 23.1032 48.6128C18.6282 56.4393 16.1447 64.8036 16.1447 72.1708C16.1447 72.9549 16.1753 73.6558 16.2184 74.4043C16.2072 74.6955 16.2719 74.9846 16.4059 75.2428C16.5399 75.501 16.7386 75.7192 16.9822 75.8757C17.2752 75.9755 17.5877 76.0021 17.8932 75.9533C18.1986 75.9045 18.4877 75.7816 18.7358 75.5954L29.1489 69.5342C29.1817 69.5193 29.2152 69.5061 29.2493 69.4946C29.6582 69.2044 30.157 69.0726 30.6544 69.1233C31.1518 69.1741 31.6144 69.404 31.9574 69.771C32.3351 70.2348 32.8065 70.612 33.3403 70.8771C33.8741 71.1422 34.4578 71.2892 35.0525 71.3083C36.5628 71.3112 38.0422 70.8763 39.3147 70.0553C41.001 69.0395 42.498 67.7336 43.7379 66.1968C45.0757 64.5586 46.1849 62.7434 47.0346 60.8016C47.4933 59.521 48.3605 58.4304 49.5001 57.7009L59.9093 51.639C60.7572 51.1067 61.4646 50.3749 61.9706 49.5062C62.5119 48.6355 62.8421 47.6483 62.9345 46.6248C62.991 45.8099 63.0217 45.078 63.0217 44.2947C63.0217 37.0281 60.63 31.6331 56.2712 29.0884C54.447 28.0433 52.3795 27.5083 50.282 27.5384L50.2757 27.5376ZM17.4995 77.0186C17.1662 77.0217 16.8366 76.9483 16.5355 76.804C16.1272 76.5743 15.7884 76.237 15.5553 75.8282C15.3222 75.4193 15.2036 74.9543 15.2121 74.4827C15.1517 73.7073 15.125 72.9779 15.125 72.17C15.125 64.6238 17.6431 56.075 22.2092 48.0932C26.7885 40.113 32.8656 33.64 39.3461 29.8772C45.8957 26.0621 52.0905 25.4627 56.7822 28.1998C61.4659 30.933 64.0397 36.6481 64.0397 44.2956C64.0397 45.1058 64.0138 45.859 63.9525 46.6953C63.845 47.882 63.4662 49.0275 62.8458 50.0416C62.2486 51.0538 61.4195 51.9069 60.4281 52.5292L50.0017 58.5951C49.0616 59.2116 48.348 60.1223 47.9703 61.1874C47.0872 63.2301 45.9246 65.1379 44.5165 66.855C43.2055 68.4866 41.62 69.8725 39.8327 70.9495C38.3847 71.8669 36.7073 72.3486 34.9975 72.3379C34.2623 72.3106 33.5412 72.1267 32.8814 71.7983C32.2217 71.4699 31.6382 71.0044 31.1693 70.4324C30.7352 69.9033 29.9715 70.2621 29.6716 70.4419C29.641 70.4545 29.6112 70.472 29.5845 70.4807L19.2585 76.4896C18.7281 76.818 18.1216 77.0004 17.4995 77.0186Z" fill="#1B69FF"/>
<path fill-rule="evenodd" clip-rule="evenodd" d="M38.5935 64.62C38.0437 64.6266 37.5124 64.4199 37.1092 64.0426C36.3761 63.3298 36.1203 62.0801 36.4193 60.6093C36.9225 58.1034 38.8369 55.7345 40.7686 55.2133C41.1332 55.1052 41.5197 55.0965 41.8887 55.188C42.2576 55.2796 42.5959 55.4681 42.8692 55.7345C43.2778 56.1835 43.5686 56.7285 43.7151 57.3199C43.8615 57.9113 43.8588 58.5302 43.7075 59.1204C43.1863 61.6255 41.2742 63.9951 39.3448 64.5162C39.0999 64.5838 38.8474 64.6187 38.5935 64.62Z" fill="#1B69FF"/>
<path fill-rule="evenodd" clip-rule="evenodd" d="M58.1905 48.0449C58.078 48.0447 57.9688 48.0071 57.8796 47.9379C57.7904 47.8687 57.7263 47.7719 57.6972 47.6623C57.668 47.5526 57.6755 47.4364 57.7184 47.3314C57.7614 47.2265 57.8374 47.1388 57.9347 47.0818L60.7126 45.4653C60.8292 45.4021 60.9657 45.3873 61.093 45.4241C61.2202 45.461 61.3282 45.5464 61.3939 45.6624C61.4596 45.7783 61.4779 45.9157 61.4447 46.045C61.4116 46.1744 61.3298 46.2855 61.2166 46.3548L58.4386 47.9752C58.3635 48.0202 58.2779 48.0443 58.1905 48.0449Z" fill="#1B69FF"/>
<path fill-rule="evenodd" clip-rule="evenodd" d="M52.7457 35.8806C52.6557 35.8819 52.5671 35.8578 52.4899 35.811C52.4312 35.7782 52.3796 35.7338 52.3381 35.6806C52.2967 35.6274 52.2662 35.5663 52.2484 35.501C52.2307 35.4357 52.226 35.3675 52.2347 35.3004C52.2434 35.2332 52.2653 35.1686 52.2991 35.1101L54.274 31.672C54.3072 31.6129 54.3517 31.561 54.4048 31.5194C54.458 31.4778 54.5188 31.4473 54.5838 31.4296C54.6488 31.4119 54.7166 31.4074 54.7833 31.4164C54.85 31.4253 54.9143 31.4476 54.9724 31.4819C55.0305 31.5162 55.0813 31.5618 55.1218 31.616C55.1622 31.6702 55.1917 31.732 55.2083 31.7979C55.2249 31.8637 55.2284 31.9322 55.2185 31.9993C55.2087 32.0665 55.1857 32.1311 55.1509 32.1892L53.1799 35.6233C53.1375 35.7019 53.0746 35.7673 52.9981 35.8127C52.9217 35.858 52.8344 35.8815 52.7457 35.8806Z" fill="#1B69FF"/>
<path fill-rule="evenodd" clip-rule="evenodd" d="M39.5852 37.185C39.5186 37.1856 39.4525 37.1727 39.3909 37.147C39.3293 37.1214 39.2735 37.0836 39.2266 37.0359C39.1797 36.9881 39.1428 36.9314 39.1179 36.869C39.0931 36.8066 39.081 36.7398 39.0821 36.6726V33.4318C39.0819 33.2962 39.1345 33.1659 39.2286 33.0692C39.3228 32.9724 39.4509 32.9169 39.5852 32.9146C39.6532 32.9138 39.7206 32.9265 39.7837 32.9521C39.8467 32.9777 39.9041 33.0156 39.9525 33.0637C40.001 33.1117 40.0396 33.169 40.066 33.2322C40.0924 33.2954 40.1061 33.3633 40.1064 33.4318V36.6726C40.106 36.7409 40.0922 36.8085 40.0657 36.8714C40.0392 36.9343 40.0005 36.9912 39.952 37.0388C39.9035 37.0865 39.8462 37.1241 39.7832 37.1492C39.7202 37.1743 39.6529 37.1864 39.5852 37.185Z" fill="#1B69FF"/>
<path fill-rule="evenodd" clip-rule="evenodd" d="M26.4234 51.1964C26.3322 51.1938 26.243 51.1696 26.1628 51.1259L24.2051 49.9782C24.1469 49.9449 24.0959 49.9002 24.0549 49.8468C24.014 49.7934 23.984 49.7324 23.9666 49.6672C23.9492 49.602 23.9448 49.534 23.9537 49.4671C23.9626 49.4001 23.9845 49.3357 24.0183 49.2774C24.0507 49.2186 24.0944 49.1668 24.1469 49.1254C24.1994 49.084 24.2596 49.0537 24.3239 49.0362C24.3883 49.0187 24.4554 49.0143 24.5215 49.0235C24.5875 49.0327 24.651 49.0552 24.7083 49.0896L26.6793 50.2364C26.738 50.2693 26.7895 50.3136 26.831 50.3669C26.8724 50.4201 26.903 50.4811 26.9208 50.5464C26.9385 50.6117 26.9432 50.68 26.9345 50.7471C26.9258 50.8142 26.9038 50.8789 26.87 50.9374C26.8234 51.0152 26.758 51.0798 26.6799 51.1251C26.6017 51.1704 26.5135 51.195 26.4234 51.1964Z" fill="#1B69FF"/>
<path fill-rule="evenodd" clip-rule="evenodd" d="M18.1855 71.3163C18.0979 71.3172 18.0116 71.294 17.9359 71.2492C17.8603 71.2044 17.7982 71.1397 17.7562 71.062C17.6884 70.9436 17.6699 70.8029 17.7047 70.6708C17.7396 70.5386 17.825 70.4258 17.9422 70.3572L20.7201 68.7359C20.7781 68.7028 20.8419 68.6815 20.9079 68.6733C20.974 68.6651 21.0411 68.67 21.1052 68.688C21.1694 68.7059 21.2294 68.7365 21.2819 68.7779C21.3343 68.8193 21.3782 68.8707 21.4109 68.9292C21.4453 68.9873 21.4678 69.0517 21.477 69.1187C21.4862 69.1857 21.4819 69.2539 21.4645 69.3192C21.4471 69.3845 21.4168 69.4457 21.3755 69.4989C21.3342 69.5522 21.2827 69.5966 21.2241 69.6294L18.4461 71.2498C18.3657 71.2924 18.2764 71.3152 18.1855 71.3163Z" fill="#1B69FF"/>
<path fill-rule="evenodd" clip-rule="evenodd" d="M42.7689 56.9026C42.6544 56.9027 42.5434 56.8627 42.4549 56.7894C42.4017 56.7475 42.3573 56.6955 42.3241 56.6363C42.2909 56.577 42.2696 56.5117 42.2615 56.4441C42.2534 56.3766 42.2586 56.308 42.2769 56.2425C42.2951 56.177 42.326 56.1157 42.3678 56.0623L57.2857 37.4313C57.327 37.3761 57.3789 37.3298 57.4382 37.2952C57.4976 37.2606 57.5633 37.2384 57.6313 37.2299C57.6994 37.2215 57.7683 37.227 57.8343 37.246C57.9002 37.265 57.9616 37.2972 58.015 37.3407C58.0683 37.3842 58.1124 37.438 58.1446 37.4991C58.1769 37.5601 58.1967 37.6271 58.2028 37.696C58.2088 37.7649 58.201 37.8343 58.18 37.9001C58.1589 37.9659 58.1249 38.0269 58.08 38.0792L43.1614 56.7102C43.1148 56.7704 43.0553 56.819 42.9873 56.8523C42.9192 56.8857 42.8445 56.9029 42.7689 56.9026Z" fill="#1B69FF"/>
</g>
<defs>
<clipPath id="clip0_9_54623">
<rect width="73" height="99" fill="white"/>
</clipPath>
</defs>
</svg>

<svg xmlns="http://www.w3.org/2000/svg" width="73" height="99" fill="none" viewBox="0 0 73 99"><g fill-rule="evenodd" clip-path="url(#a)" clip-rule="evenodd"><path fill="#1b69ff" d="M33.062 20.823C17.943 29.846 5.863 49.558 4.366 67.693c-.218 2.585-.664 7.963 1.436 10.012a51 51 0 0 0 4.94 3.027 8.2 8.2 0 0 1-.664-2.799c-1.225-14.995 7.101-32.159 15.886-42.521 7.432-8.768 18.918-17.138 29.29-15.386l-2.148-1.248c-5.443-3.101-12.196-2.413-20.045 2.045M13 83.128a.6.6 0 0 1-.26-.066 65 65 0 0 0-1.194-.687 61 61 0 0 1-6.45-3.924c-2.466-2.396-2.002-7.888-1.759-10.844 1.541-18.448 13.808-38.498 29.2-47.673v-.008c8.191-4.647 15.293-5.335 21.065-2.041l6.798 3.96a.5.5 0 0 1 .254.51.5.5 0 0 1-.067.19.51.51 0 0 1-.691.197c-10.96-6.098-24.711 3.376-33.163 13.34C18.08 46.278 9.888 63.148 11.095 77.85c.174 2.128.838 3.464 2.175 4.327a.515.515 0 0 1 .216.578.52.52 0 0 1-.49.372z"/><path fill="#f1f4fb" d="M39.586 24.33c8.034-4.672 15.306-5.11 20.565-2.04 5.27 3.07 8.525 9.648 8.525 19.008 0 .915-.044 1.9-.105 2.846a18.4 18.4 0 0 1-2.709 8.007 16.9 16.9 0 0 1-5.698 5.925l-9.116 5.307a36 36 0 0 1-4.48 6.959 26.6 26.6 0 0 1-6.997 6.158 12.8 12.8 0 0 1-6.997 1.993 7.2 7.2 0 0 1-4.467-1.757l-9.115 5.306c-2.197 1.275-4.205 1.467-5.716.727s-2.505-2.422-2.691-4.87a43 43 0 0 1-.105-2.733c.018-9.359 3.273-19.73 8.542-28.928 5.259-9.21 12.542-17.234 20.564-21.907"/><path fill="#1b69ff" d="M52.558 20.833c-3.885 0-8.209 1.326-12.717 3.945-7.692 4.477-14.932 12.19-20.392 21.715C14.006 56.014 11 66.197 11 75.163c0 .854.03 1.783.1 2.693.16 2.18 1.006 3.762 2.39 4.445 1.414.688 3.27.438 5.24-.713l9.116-5.306a.51.51 0 0 1 .595.057 6.68 6.68 0 0 0 4.16 1.633c2.373.013 4.7-.656 6.71-1.927a26.1 26.1 0 0 0 6.872-6.04 36 36 0 0 0 4.405-6.857.5.5 0 0 1 .2-.22l9.115-5.306a16.5 16.5 0 0 0 5.53-5.746 17.6 17.6 0 0 0 2.622-7.77c.074-.964.1-1.935.1-2.816 0-8.86-2.921-15.451-8.252-18.565a14.4 14.4 0 0 0-7.345-1.901zM15.22 83.71a4.85 4.85 0 0 1-2.174-.486c-1.727-.85-2.778-2.733-2.969-5.295-.07-.937-.1-1.893-.1-2.769 0-9.14 3.055-19.507 8.599-29.186 5.543-9.678 12.918-17.523 20.765-22.09 7.922-4.616 15.41-5.343 21.065-2.04s8.773 10.217 8.773 19.454c0 .907-.03 1.9-.105 2.882a19 19 0 0 1-2.76 8.237 17.6 17.6 0 0 1-5.908 6.105l-8.968 5.227a36.3 36.3 0 0 1-4.48 6.924 27.3 27.3 0 0 1-7.131 6.272 13.56 13.56 0 0 1-7.284 2.06 7.8 7.8 0 0 1-4.492-1.652l-8.812 5.129a8.1 8.1 0 0 1-4.02 1.228z"/><path fill="#fff" d="M56.525 28.64c-4.337-2.527-10.326-2.167-16.938 1.683s-12.6 10.454-16.932 18.03-7.014 16.11-7.014 23.818c0 .796.012 1.51.073 2.273-.008.38.083.755.264 1.088.182.333.447.612.77.808a2.39 2.39 0 0 0 2.248-.298L29.41 69.98v.013c.834-.485 1.654-.485 2.145.106.425.518.954.94 1.553 1.236a4.7 4.7 0 0 0 1.919.485 8.35 8.35 0 0 0 4.552-1.32 17.2 17.2 0 0 0 4.553-3.976 23.7 23.7 0 0 0 3.375-5.518 5.65 5.65 0 0 1 2.245-2.86l10.426-6.061a6.64 6.64 0 0 0 2.23-2.313 7.1 7.1 0 0 0 1.051-3.114c.06-.828.074-1.568.074-2.365.003-7.709-2.675-13.127-7.007-15.653"/><path fill="#1b69ff" d="M50.276 27.538c-3.183 0-6.742 1.085-10.427 3.232-6.32 3.679-12.27 10.016-16.746 17.843-4.475 7.826-6.958 16.19-6.958 23.558 0 .784.03 1.485.073 2.233a1.68 1.68 0 0 0 .764 1.472 1.9 1.9 0 0 0 1.754-.28l10.413-6.062q.05-.022.1-.04a2.065 2.065 0 0 1 2.708.277c.378.464.85.841 1.383 1.106a4.15 4.15 0 0 0 1.712.431 7.83 7.83 0 0 0 4.263-1.253 16.9 16.9 0 0 0 4.423-3.858 23.3 23.3 0 0 0 3.297-5.395A6.14 6.14 0 0 1 49.5 57.7l10.41-6.062a6.2 6.2 0 0 0 2.06-2.133c.542-.87.872-1.858.965-2.881.056-.815.087-1.547.087-2.33 0-7.267-2.392-12.662-6.75-15.207a11.7 11.7 0 0 0-5.99-1.55zm-32.777 49.48a2.2 2.2 0 0 1-.963-.214 2.6 2.6 0 0 1-.98-.976 2.6 2.6 0 0 1-.344-1.345 29 29 0 0 1-.087-2.313c0-7.546 2.518-16.095 7.084-24.077 4.58-7.98 10.657-14.453 17.137-18.216 6.55-3.815 12.745-4.414 17.436-1.677 4.684 2.733 7.258 8.448 7.258 16.096 0 .81-.026 1.563-.088 2.4a7.75 7.75 0 0 1-1.106 3.346 7.34 7.34 0 0 1-2.418 2.487l-10.426 6.066a5.16 5.16 0 0 0-2.032 2.592 23.9 23.9 0 0 1-3.453 5.668 17.8 17.8 0 0 1-4.684 4.094 8.93 8.93 0 0 1-4.835 1.389 5.2 5.2 0 0 1-2.117-.54 5.2 5.2 0 0 1-1.712-1.366c-.434-.529-1.198-.17-1.497.01-.031.013-.06.03-.088.039L19.26 76.49c-.53.328-1.137.51-1.76.529"/><path fill="#1b69ff" d="M38.594 64.62c-.55.007-1.082-.2-1.485-.577-.733-.713-.989-1.963-.69-3.434.504-2.506 2.418-4.875 4.35-5.396a2.13 2.13 0 0 1 2.1.521 3.686 3.686 0 0 1 .838 3.386c-.52 2.506-2.433 4.875-4.362 5.396a2.9 2.9 0 0 1-.751.104M58.19 48.045a.51.51 0 0 1-.493-.383.52.52 0 0 1 .238-.58l2.778-1.617a.504.504 0 0 1 .68.197.516.516 0 0 1-.176.693l-2.778 1.62a.5.5 0 0 1-.248.07M52.746 35.88a.5.5 0 0 1-.256-.069.505.505 0 0 1-.255-.51.5.5 0 0 1 .064-.19l1.975-3.439a.51.51 0 0 1 .31-.242.5.5 0 0 1 .538.186.515.515 0 0 1 .029.573l-1.971 3.434a.49.49 0 0 1-.434.258M39.585 37.185a.5.5 0 0 1-.358-.15.5.5 0 0 1-.145-.362v-3.241c0-.136.053-.266.147-.363a.51.51 0 0 1 .877.363v3.24a.52.52 0 0 1-.323.477.5.5 0 0 1-.198.036M26.423 51.196a.6.6 0 0 1-.26-.07l-1.958-1.148a.51.51 0 0 1-.251-.51.5.5 0 0 1 .064-.19.5.5 0 0 1 .503-.255q.1.015.187.067l1.971 1.146a.505.505 0 0 1 .256.511.51.51 0 0 1-.255.378.5.5 0 0 1-.257.071M18.186 71.316a.48.48 0 0 1-.43-.254.52.52 0 0 1 .186-.705l2.778-1.621a.504.504 0 0 1 .69.193.507.507 0 0 1-.186.7l-2.778 1.62a.6.6 0 0 1-.26.067"/><path fill="#1b69ff" d="M42.769 56.903a.5.5 0 0 1-.314-.114.516.516 0 0 1-.087-.727l14.918-18.63a.51.51 0 0 1 .548-.186.51.51 0 0 1 .369.45.52.52 0 0 1-.123.383L43.161 56.71a.5.5 0 0 1-.392.193"/></g><defs><clipPath id="a"><path fill="#fff" d="M0 0h73v99H0z"/></clipPath></defs></svg>
